X:1
T:[ID 2-37]
T:[ID 2-37]
T:Bezeichnung standardisiert: Polonaise [mit Trio] Polon\"aise [nur Trio] In dieser Quelle auch als: Polonoise
T:Urheber unbekannt Datum in der hier transkribierten schriftlichen Quelle: 1767
C:Urheber unbekannt
C:Datum in der hier transkribierten schriftlichen Quelle: 1767
L:1/8
M:3/4
K:C
V:1 treble 
V:1
 x6 | x6 | x6 | x6 | x6 | x6 | x6 | x6 | x6 | x6 :: x6 | x6 | x6 | x6 | x6 | x6 | x6 | x6 | x6 | %19
 x6 :|[M:3/4]"^Trio" e2 c2 ec | e/f/e/d/ cd e2 | f/d/c/B/ A/G/F/E/ D2 | EE/D/ E4 :: %24
"^O)" B3/2(c/4d/4) BB B3/2(c/4d/4) | c3/2(d/4e/4) cABA |"^O)" B3/2c/4d/4 BB B3/2c/4d/4 | %27
 c3/2(d/4e/4) cEFE | e>c e/c/e/c/ fd | c>G F/ E4 :| %30

